archive-settings.svg

<svg fill="currentColor" viewBox="0 0 24 24"><path d="M21 2v4H3V2zM4 7h16v13H4zm5 5h6v-1.5c0-.28-.22-.5-.5-.5h-5c-.28 0-.5.22-.5.5zM7 24h2v-2H7zm4 0h2v-2h-2zm4 0h2v-2h-2z"/></svg>

<svg  viewBox="0 0 24 24" fill="currentColor"><path  d="M21 2V6H3V2H21M4 7H20V20H4V7M9 12H15V10.5C15 10.22 14.78 10 14.5 10H9.5C9.22 10 9 10.22 9 10.5V12M7 24H9V22H7V24M11 24H13V22H11V24M15 24H17V22H15V24Z"/></svg>
